public/images/case-studies/filemaker/benefits-left-hashtag.svg

<svg width="432" height="373" viewBox="0 0 432 373" fill="none" xmlns="http://www.w3.org/2000/svg">
<path d="M-81.3932 129.169H-9.51797L-23.2083 50.6626H-81.3932C-112.197 50.6626 -136.155 26.7693 -136.155 -3.95081C-136.155 -34.6709 -112.197 -58.5643 -81.3932 -58.5643H-40.3214L-54.0121 -130.244C-60.8574 -157.551 -40.3216 -184.858 -9.51797 -191.685C17.863 -198.511 45.244 -178.031 52.0893 -147.311L69.2024 -58.5643H175.303L161.613 -130.244C154.768 -157.551 175.304 -184.858 206.107 -191.685C233.488 -198.511 260.869 -178.031 267.715 -147.311L284.828 -58.5643H377.238C408.042 -58.5643 432 -34.6709 432 -3.95081C432 26.7693 401.197 50.6626 370.393 50.6626H298.518L312.208 129.169H370.393C401.197 129.169 425.155 153.063 425.155 183.783C425.155 214.503 401.197 238.396 370.393 238.396H329.321L343.012 310.077C349.857 337.383 329.322 364.69 298.518 371.517C277.982 378.343 243.756 361.277 236.911 327.143L219.798 238.396H113.697L127.387 310.077C134.232 337.383 113.696 364.69 82.8927 371.517C62.357 378.343 28.1307 361.277 21.2854 327.143L4.17233 238.396H-88.2384C-119.042 238.396 -143 214.503 -143 183.783C-132.732 153.063 -108.774 129.169 -81.3932 129.169ZM100.006 129.169H206.107L192.417 50.6626H86.3155L100.006 129.169Z" fill="url(#paint0_linear)" fill-opacity="0.5"/>
<path d="M-7.5477 128.826L-7.13904 131.169H-9.51797H-81.3932C-107.469 131.169 -130.815 153.958 -140.999 184.107C-140.831 213.561 -117.834 236.396 -88.2384 236.396H4.17233H5.82352L6.13617 238.018L23.2464 326.75C23.2469 326.752 23.2473 326.755 23.2478 326.757C26.5537 343.231 36.4622 355.587 48.0346 363.006C59.6704 370.466 72.7305 372.787 82.2618 369.619L82.3595 369.586L82.46 369.564C112.469 362.913 131.948 336.496 125.447 310.563L125.433 310.508L125.422 310.452L111.732 238.772L111.279 236.396H113.697H219.798H221.449L221.761 238.018L238.872 326.75C238.872 326.752 238.873 326.755 238.873 326.757C242.179 343.231 252.087 355.587 263.66 363.006C275.296 370.466 288.356 372.787 297.887 369.619L297.985 369.586L298.085 369.564C328.095 362.913 347.573 336.496 341.072 310.563L341.058 310.508L341.048 310.452L327.357 238.772L326.903 236.396H329.321H370.393C400.097 236.396 423.155 213.393 423.155 183.783C423.155 154.173 400.097 131.169 370.393 131.169H312.208H310.527L310.238 129.513L296.548 51.0062L296.139 48.6626H298.518H370.393C385.298 48.6626 400.245 42.8732 411.453 33.3517C422.653 23.8366 430 10.7068 430 -3.95081C430 -33.5612 406.942 -56.5643 377.238 -56.5643H284.828H283.177L282.864 -58.1856L265.756 -146.904C259.08 -176.805 232.602 -196.229 206.591 -189.744L206.566 -189.738L206.54 -189.732C176.531 -183.081 157.052 -156.664 163.553 -130.731L163.567 -130.676L163.578 -130.62L177.268 -58.9395L177.722 -56.5643H175.303H69.2024H67.5512L67.2386 -58.1856L50.1308 -146.905C43.454 -176.806 16.9761 -196.229 -9.03415 -189.744L-9.0596 -189.738L-9.08524 -189.732C-39.0947 -183.081 -58.5732 -156.664 -52.0722 -130.731L-52.0583 -130.676L-52.0477 -130.62L-38.3569 -58.9395L-37.9032 -56.5643H-40.3214H-81.3932C-111.097 -56.5643 -134.155 -33.5612 -134.155 -3.95081C-134.155 25.6596 -111.097 48.6626 -81.3932 48.6626H-23.2083H-21.5268L-21.238 50.3191L-7.5477 128.826ZM100.006 131.169H98.3244L98.0355 129.513L84.3452 51.0062L83.9366 48.6626H86.3155H192.417H194.098L194.387 50.319L208.078 128.826L208.486 131.169H206.107H100.006Z" stroke="#FF8A00" stroke-opacity="0.4" stroke-width="4"/>
<defs>
<linearGradient id="paint0_linear" x1="144.5" y1="-193" x2="144.5" y2="373" gradientUnits="userSpaceOnUse">
<stop stop-color="#FF9900"/>
<stop offset="1" stop-color="#FF6B00"/>
</linearGradient>
</defs>
</svg>

<svg xmlns="http://www.w3.org/2000/svg" width="432" height="373" fill="none" xmlns:v="https://vecta.io/nano"><path d="M-81.393 129.169h71.875l-13.69-78.506h-58.185c-30.804 0-54.762-23.893-54.762-54.613s23.958-54.613 54.762-54.613h41.072l-13.691-71.68c-6.845-27.307 13.691-54.614 44.494-61.441 27.381-6.826 54.762 13.654 61.607 44.374l17.113 88.747h106.101l-13.69-71.68c-6.845-27.307 13.691-54.614 44.494-61.441 27.381-6.826 54.762 13.654 61.608 44.374l17.113 88.747h92.41C408.042-58.564 432-34.671 432-3.951s-30.803 54.613-61.607 54.613h-71.875l13.69 78.506h58.185c30.804 0 54.762 23.894 54.762 54.614s-23.958 54.613-54.762 54.613h-41.072l13.691 71.681c6.845 27.306-13.69 54.613-44.494 61.44-20.536 6.826-54.762-10.24-61.607-44.374l-17.113-88.747H113.697l13.69 71.681c6.845 27.306-13.691 54.613-44.494 61.44-20.536 6.826-54.762-10.24-61.607-44.374L4.172 238.396h-92.411c-30.804 0-54.762-23.893-54.762-54.613 10.268-30.72 34.226-54.614 61.607-54.614zm181.399 0h106.101l-13.69-78.506H86.316l13.691 78.506z" fill="url(#A)" fill-opacity=".5"/><path d="M-7.548 128.826l.409 2.343h-2.379-71.875c-26.076 0-49.422 22.789-59.606 52.938.168 29.454 23.165 52.289 52.761 52.289H4.172h1.651l.313 1.622 17.11 88.732c3.307 16.481 13.216 28.837 24.788 36.256 11.636 7.46 24.696 9.781 34.227 6.613l.098-.033.1-.022c30.009-6.651 49.488-33.068 42.987-59.001l-.014-.055-.011-.056-13.69-71.68-.453-2.376h2.418 106.101 1.651l.312 1.622 17.111 88.732c3.307 16.481 13.215 28.837 24.788 36.256 11.636 7.46 24.696 9.781 34.227 6.613l.098-.033.1-.022c30.01-6.651 49.488-33.068 42.987-59.001l-.014-.055-.01-.056-13.691-71.68-.454-2.376h2.418 41.072c29.704 0 52.762-23.003 52.762-52.613s-23.058-52.614-52.762-52.614h-58.185-1.681l-.289-1.656-13.69-78.507-.409-2.344h2.379 71.875c14.905 0 29.852-5.789 41.06-15.311C422.653 23.837 430 10.707 430-3.951c0-29.61-23.058-52.613-52.762-52.613h-92.41-1.651l-.313-1.621-17.108-88.718c-6.676-29.901-33.154-49.325-59.165-42.84l-.025.006-.026.006c-30.009 6.651-49.488 33.068-42.987 59.001l.014.055.011.056 13.69 71.681.454 2.375h-2.419H69.202h-1.651l-.313-1.621-17.108-88.719c-6.677-29.901-33.155-49.324-59.165-42.839l-.025.006-.026.006c-30.009 6.651-49.488 33.068-42.987 59.001l.014.055.011.056 13.691 71.681.454 2.375h-2.418-41.072c-29.704 0-52.762 23.003-52.762 52.613s23.058 52.613 52.762 52.613h58.185 1.681l.289 1.657 13.69 78.507zm107.554 2.343h-1.682l-.289-1.656-13.69-78.507-.409-2.344h2.379 106.102 1.681l.289 1.656 13.691 78.507.408 2.343h-2.379-106.101z" stroke="#ff8a00" stroke-opacity=".4" stroke-width="4"/><defs><linearGradient id="A" x1="144.5" y1="-193" x2="144.5" y2="373" gradientUnits="userSpaceOnUse"><stop stop-color="#f90"/><stop offset="1" stop-color="#ff6b00"/></linearGradient></defs></svg>
